src/assets/stacks/apidog.svg

<?xml version="1.0" encoding="UTF-8"?>
<svg width="256px" height="256px" viewBox="0 0 256 256" version="1.1" xmlns="http://www.w3.org/2000/svg" preserveAspectRatio="xMidYMid">
    <title>Apidog</title>
    <defs>
        <linearGradient x1="0%" y1="36.3007109%" x2="99.9956691%" y2="64.6113742%" id="linearGradient-1">
            <stop stop-color="#33BBFF" offset="0%"></stop>
            <stop stop-color="#7733FF" offset="100%"></stop>
        </linearGradient>
        <linearGradient x1="102.837018%" y1="70.7770711%" x2="-5.65474532%" y2="28.962418%" id="linearGradient-2">
            <stop stop-color="#99C2FF" offset="0%"></stop>
            <stop stop-color="#FFFFFF" offset="100%"></stop>
        </linearGradient>
        <linearGradient x1="49.9412852%" y1="69.2152071%" x2="23.6694604%" y2="32.8598311%" id="linearGradient-3">
            <stop stop-color="#99C2FF" offset="0%"></stop>
            <stop stop-color="#FFFFFF" offset="100%"></stop>
        </linearGradient>
    </defs>
    <g>
        <path d="M198.391408,180.367981 L193.999598,175.983983 L193.183633,175.231984 C175.692223,158.229842 152.259032,148.72127 127.866462,148.727998 C103.47666,148.723353 80.0467155,158.231772 62.5572906,175.231984 L61.9893152,175.791983 L57.6615026,180.175981 L48.3739049,189.439976 C43.0694477,194.804706 35.8389864,197.823769 28.2947745,197.823972 C20.7949046,197.8258 13.6002253,194.85402 8.28764106,189.559976 C2.98341549,184.271961 0,177.090001 0,169.599987 C0,162.109972 2.98341549,154.928012 8.28764106,149.639997 L28.2947745,129.680008 L8.53563032,110.024018 C3.08407924,104.716512 0.00624993519,97.4326776 0,89.824029 C0,82.336033 2.98387077,75.1600368 8.28764106,69.8640396 C19.3474124,58.8308793 37.2501363,58.8308793 48.3099077,69.8640396 L62.8052799,84.3200319 C80.3047519,101.306908 103.734734,110.805568 128.122451,110.800018 C152.521394,110.800018 175.960379,101.296023 193.431622,84.3200319 C193.609078,84.0785906 193.822164,83.8654953 194.063595,83.6880323 L202.279239,75.4320366 L207.743002,70.0480395 C213.020634,64.7369254 220.206944,61.7631523 227.694138,61.7920439 C235.197813,61.7920439 242.389502,64.7600423 247.693272,70.0560395 C255.820371,78.1417682 258.240006,90.3448451 253.813007,100.920023 C252.35707,104.368021 250.213163,107.48802 247.51728,110.096018 L227.694138,129.872008 L247.51728,149.647997 C252.949054,154.94062 256.005339,162.207906 255.988913,169.791987 C255.988913,177.271983 253.005042,184.447979 247.701272,189.743976 C236.663442,200.769784 218.780832,200.769784 207.743002,189.743976 L198.32741,180.367981 L198.391408,180.367981 Z" fill="url(#linearGradient-1)"></path>
        <path d="M178.71226,2.13607559 C182.152111,3.55207484 185.271976,5.63207374 187.895862,8.25607234 C193.174457,13.5503145 196.133329,20.7250363 196.121363,28.2013193 C196.109324,35.6776024 193.127432,42.8427861 187.831865,48.1200512 L167.832731,68.0800406 L167.328753,68.5200403 C145.370712,89.924361 110.354212,89.924361 88.3961715,68.5200403 L87.8921933,68.0800406 L67.8770602,48.1200512 C56.9428321,37.0871701 56.9964993,19.2868155 67.997055,8.32007231 C79.0107926,-2.68621035 96.8503427,-2.71482352 107.899327,8.25607234 L127.91446,28.2240617 L147.865596,8.25607234 C153.179468,2.96002732 160.37854,-0.00950133417 167.880729,0 C171.599294,-0.00859167068 175.282957,0.717297679 178.720259,2.13607559 L178.71226,2.13607559 Z" fill="url(#linearGradient-2)"></path>
        <path d="M77.11666,253.863942 C73.6817759,252.449674 70.560645,250.369738 67.9330578,247.743945 C62.6544625,242.449703 59.6955912,235.274981 59.7075572,227.798698 C59.7195959,220.322415 62.7014883,213.157231 67.997055,207.879966 L88.0121881,187.919977 L88.5161663,187.479977 C110.474932,166.085081 145.481982,166.085081 167.440748,187.479977 L167.944726,187.919977 L187.959859,207.879966 C198.891886,218.915048 198.834641,236.715411 187.831865,247.679945 C176.818127,258.686228 158.978577,258.714841 147.929593,247.743945 L127.91446,227.775956 L107.963324,247.735945 C102.65076,253.034923 95.4515265,256.007395 87.9481909,256 C84.2323168,256.007556 80.5514745,255.281686 77.11666,253.863942 Z" fill="url(#linearGradient-3)"></path>
    </g>
</svg>

<svg xmlns="http://www.w3.org/2000/svg" width="256" height="256" preserveAspectRatio="xMidYMid"><defs><linearGradient id="a" x1="0%" x2="99.996%" y1="36.301%" y2="64.611%"><stop offset="0%" stop-color="#3BF"/><stop offset="100%" stop-color="#73F"/></linearGradient><linearGradient id="b" x1="102.837%" x2="-5.655%" y1="70.777%" y2="28.962%"><stop offset="0%" stop-color="#99C2FF"/><stop offset="100%" stop-color="#FFF"/></linearGradient><linearGradient id="c" x1="49.941%" x2="23.669%" y1="69.215%" y2="32.86%"><stop offset="0%" stop-color="#99C2FF"/><stop offset="100%" stop-color="#FFF"/></linearGradient></defs><path fill="url(#a)" d="M198.391 180.368 194 175.984l-.816-.752a93.674 93.674 0 0 0-65.318-26.504 93.674 93.674 0 0 0-65.309 26.504l-.568.56-4.327 4.384-9.288 9.264a28.238 28.238 0 0 1-20.08 8.384 28.334 28.334 0 0 1-20.006-8.264A28.187 28.187 0 0 1 0 169.6c0-7.49 2.983-14.672 8.288-19.96l20.007-19.96-19.76-19.656A28.225 28.225 0 0 1 0 89.824a28.206 28.206 0 0 1 8.288-19.96c11.06-11.033 28.962-11.033 40.022 0L62.805 84.32a93.746 93.746 0 0 0 65.317 26.48c24.4 0 47.838-9.504 65.31-26.48a2.96 2.96 0 0 1 .632-.632l8.215-8.256 5.464-5.384a27.974 27.974 0 0 1 19.951-8.256 28.293 28.293 0 0 1 20 8.264 28.185 28.185 0 0 1 6.119 30.864 27.843 27.843 0 0 1-6.296 9.176l-19.823 19.776 19.823 19.776a28.04 28.04 0 0 1 8.472 20.144c0 7.48-2.984 14.656-8.288 19.952-11.038 11.026-28.92 11.026-39.958 0l-9.416-9.376h.064Z"/><path fill="url(#b)" d="M178.712 2.136a28.123 28.123 0 0 1 9.184 6.12 28.185 28.185 0 0 1-.064 39.864l-20 19.96-.503.44c-21.958 21.404-56.975 21.404-78.933 0l-.504-.44-20.015-19.96c-10.934-11.033-10.88-28.833.12-39.8C79.011-2.686 96.85-2.715 107.9 8.256l20.015 19.968 19.952-19.968A28.303 28.303 0 0 1 167.88 0a28.24 28.24 0 0 1 10.84 2.136h-.009Z"/><path fill="url(#c)" d="M77.117 253.864a28.159 28.159 0 0 1-9.184-6.12 28.185 28.185 0 0 1 .064-39.864l20.015-19.96.504-.44c21.959-21.395 56.966-21.395 78.925 0l.504.44 20.015 19.96c10.932 11.035 10.875 28.835-.128 39.8-11.014 11.006-28.853 11.035-39.902.064l-20.016-19.968-19.95 19.96A28.302 28.302 0 0 1 87.947 256a28.239 28.239 0 0 1-10.831-2.136Z"/></svg>
